src/icons/thermometer-cold.svg

<?xml version="1.0" encoding="UTF-8" standalone="no"?><svg viewBox="0 0 32 32" xmlns="http://www.w3.org/2000/svg" xmlns:xlink="http://www.w3.org/1999/xlink" xml:space="preserve" fill-rule="evenodd" clip-rule="evenodd" stroke-linejoin="round" stroke-miterlimit="2" fill="currentColor"><g transform="translate(-.769)"><path d="M20.064 19.968c.224.416.512 1.12.512 1.856a3.754 3.754 0 0 1-3.776 3.904 3.85 3.85 0 0 1-3.84-3.84c0-.8.192-1.6.608-2.176V9.632c0-1.856 1.472-3.36 3.264-3.36s3.264 1.504 3.264 3.36c0 .064 0 .128-.032.192zm-3.296 3.904c1.12 0 2.016-.896 2.016-2.016 0-.32-.16-.8-.416-1.216-.16-.224-.16-.512-.096-.768V9.632c0-.832-.672-1.568-1.472-1.568s-1.44.704-1.44 1.568v10.432a.9.9 0 0 1-.32.672c-.192.32-.288.704-.288 1.12 0 1.12.896 2.016 2.016 2.016m.032-4.704c.48 0 .896.416.896.896v1.952c0 .48-.384.896-.896.896a.894.894 0 0 1-.896-.896v-1.952c0-.512.416-.896.896-.896"/></g></svg>

<?xml version="1.0" encoding="UTF-8" standalone="no"?>
<!DOCTYPE svg PUBLIC "-//W3C//DTD SVG 1.1//EN" "http://www.w3.org/Graphics/SVG/1.1/DTD/svg11.dtd">
<svg width="100%" height="100%" viewBox="0 0 32 32" version="1.1" xmlns="http://www.w3.org/2000/svg" xmlns:xlink="http://www.w3.org/1999/xlink" xml:space="preserve" xmlns:serif="http://www.serif.com/" style="fill-rule:evenodd;clip-rule:evenodd;stroke-linejoin:round;stroke-miterlimit:2;">
    <g transform="matrix(1,0,0,1,-0.768861,1.77636e-15)">
        <path d="M16.8,19.168C17.28,19.168 17.696,19.584 17.696,20.064L17.696,22.016C17.696,22.496 17.312,22.912 16.8,22.912C16.288,22.912 15.904,22.496 15.904,22.016L15.904,20.064C15.904,19.552 16.32,19.168 16.8,19.168Z"/>
    </g>
    <g transform="matrix(1,0,0,1,-0.768861,1.77636e-15)">
        <path d="M20.064,19.968C20.288,20.384 20.576,21.088 20.576,21.824C20.64,24.032 18.912,25.728 16.8,25.728C14.688,25.728 12.96,24 12.96,21.888C12.96,21.088 13.152,20.288 13.568,19.712L13.568,9.632C13.568,7.776 15.04,6.272 16.832,6.272C18.624,6.272 20.096,7.776 20.096,9.632C20.096,9.696 20.096,9.76 20.064,9.824L20.064,19.968ZM16.768,23.872C17.888,23.872 18.784,22.976 18.784,21.856C18.784,21.536 18.624,21.056 18.368,20.64C18.208,20.416 18.208,20.128 18.272,19.872L18.272,9.632C18.272,8.8 17.6,8.064 16.8,8.064C16,8.064 15.36,8.768 15.36,9.632L15.36,20.064C15.36,20.32 15.232,20.576 15.04,20.736C14.848,21.056 14.752,21.44 14.752,21.856C14.752,22.976 15.648,23.872 16.768,23.872Z"/>
    </g>
</svg>
